X:634
T: Father Kelly's
Z: Piano Box Version by Martin Fleischmann
H: Created 2015-03-05 /  Last Modified 2015-04-26
R: reel
M: 4/4
L: 1/8
K: Gmaj
|: GA| "G"B2 GB AGEG | DGGF G2AB | "C"c2 AB cBAG | "D"FAAG FD GA |
"G"B2 GB AGEG | DGGF G2Bc |  d2 Bd gdBd | "D"cAFA "G"G2 :|
|: Bc | "G"d2 (3.B.c.d gdBd | d2 (3.B.c.d gdBd | "C"e2 ce agfe | "D"defg agfe |
"G"d2 (3.B.c.d gdBd | "G"d2 (3.B.c.d gdBd | "C"cBAc BAGB |"D" AGFA "G"G2 :|

